X:32
T:Rigaudon de la Paix
R:
C:Feuillet
H:
N:/musdi/073/03
B:
O:France
A:
Z:<anamnese@laposte.net> -- http://anamnese.fr.st
M:4/4
L:1/4
Q:1/4=125
K:G
G | d2 e d/c/ | d2 B A/B/ | cBAG | A/G/A/B/ AG |
    d2 e d/c/ | d2 B A/B/ | cBAG |1 A3 G :|2 A3 g |
  fefg | a2b2 | efga | f dd g | fefg | a2b2 | eaf>g | g3 ||"/.../"
